web/static/images/badges/diversification.svg

<?xml version="1.0" encoding="UTF-8" standalone="no"?>
<!-- Created with Inkscape (http://www.inkscape.org/) -->

<svg
   xmlns:dc="http://purl.org/dc/elements/1.1/"
   xmlns:cc="http://creativecommons.org/ns#"
   xmlns:rdf="http://www.w3.org/1999/02/22-rdf-syntax-ns#"
   xmlns:svg="http://www.w3.org/2000/svg"
   xmlns="http://www.w3.org/2000/svg"
   xmlns:sodipodi="http://sodipodi.sourceforge.net/DTD/sodipodi-0.dtd"
   xmlns:inkscape="http://www.inkscape.org/namespaces/inkscape"
   width="207.3026mm"
   height="207.30208mm"
   viewBox="0 0 207.3026 207.30208"
   version="1.1"
   id="svg5"
   inkscape:version="0.92.5 (2060ec1f9f, 2020-04-08)"
   sodipodi:docname="diversification.svg">
  <metadata
     id="metadata10">
    <rdf:RDF>
      <cc:Work
         rdf:about="">
        <dc:format>image/svg+xml</dc:format>
        <dc:type
           rdf:resource="http://purl.org/dc/dcmitype/StillImage" />
        <dc:title></dc:title>
      </cc:Work>
    </rdf:RDF>
  </metadata>
  <sodipodi:namedview
     id="namedview7"
     pagecolor="#505050"
     bordercolor="#eeeeee"
     borderopacity="1"
     inkscape:pageshadow="0"
     inkscape:pageopacity="0"
     inkscape:pagecheckerboard="0"
     inkscape:document-units="mm"
     showgrid="false"
     inkscape:zoom="0.25335254"
     inkscape:cx="144.19116"
     inkscape:cy="69.203051"
     inkscape:window-width="1712"
     inkscape:window-height="1016"
     inkscape:window-x="208"
     inkscape:window-y="27"
     inkscape:window-maximized="0"
     inkscape:current-layer="g15"
     fit-margin-top="0"
     fit-margin-left="0"
     fit-margin-right="0"
     fit-margin-bottom="0" />
  <defs
     id="defs2">
    <style
       type="text/css"
       id="style9">

    .fil0 {fill:black}

  </style>
  </defs>
  <g
     inkscape:label="Layer 1"
     inkscape:groupmode="layer"
     id="layer1"
     transform="translate(-2.078943,-4.5645794)">
    <g
       style="clip-rule:evenodd;fill-rule:evenodd;image-rendering:optimizeQuality;shape-rendering:geometricPrecision;text-rendering:geometricPrecision"
       id="g30"
       transform="matrix(0.26458333,0,0,0.26458333,-2.2986673,18.186033)">
      <g
         id="g15"
         style="fill:#d81b60;fill-opacity:1"
         transform="matrix(1.6022599,0,0,1.6022599,-270.25732,-187.67419)">
        <path
           id="path13"
           transform="matrix(0.62411848,0,0,0.62411848,174.09485,74.232387)"
           style="fill:#43a047;fill-opacity:1;stroke-width:1.60225999"
           d="m 398.80859,17.251953 -46.46484,56.078125 -68.89648,-38.453125 -30.44336,73.703127 -83.31836,-17.625002 -4.80664,73.705082 -78.509769,9.61328 17.624999,76.9082 -76.908202,36.85156 40.054687,62.48828 -59.2832031,52.875 60.8867191,51.27149 -41.658203,75.30664 68.896484,27.23828 -16.023438,76.9082 78.511716,6.41016 11.21485,84.91992 70.5,-19.22851 32.04492,72.10156 68.89844,-41.6582 57.67968,64.08984 48.06836,-57.67969 67.29493,40.05664 32.04492,-73.70508 83.31836,16.02344 4.80664,-73.70508 78.50976,-8.00976 -19.22656,-78.51172 78.51172,-35.25 -40.05664,-62.48828 59.2832,-52.875 -60.88672,-52.87305 41.66016,-73.70508 -68.89844,-27.23828 16.02344,-78.50976 L 639.14844,175.875 629.53516,90.955078 557.43359,110.18359 525.38867,38.082031 458.09375,79.740234 Z M 600.29688,237.19141 c -1.8e-4,0 -56.91013,322.48437 -265.57618,322.48437 -6.82907,0 -16.31252,-2.46704 -25.41797,-5.69336 l -18.02148,43.63086 -35.85352,-12.51953 c 39.45612,-98.07069 79.29179,-215.11084 250.00977,-253.05273 -0.0559,0 -189.69565,0.0252 -251.33789,175.46875 0,0 -33.19531,-33.19718 -33.19531,-71.13672 0,-37.93951 37.93889,-118.55991 132.78711,-137.5293 94.84818,-18.9694 227.63585,-23.71283 246.60547,-61.65234 z m -18.81446,515.1914 c -0.002,1.26439 0.002,2.52879 -0.008,3.79297 0.14377,-0.0306 0.28627,-0.0642 0.42969,-0.0957 z m -125.50976,27.67774 c -0.008,0.0385 -0.0207,0.0768 -0.0293,0.11523 0.0574,-0.009 0.18918,-0.0355 0.24219,-0.043 -0.0274,-0.0175 -0.0547,-0.0352 -0.082,-0.0527 -0.0262,-0.002 -0.12408,-0.0201 -0.13086,-0.0195 z m 66.75586,16.30859 c -0.10319,-0.0174 -0.1933,0.11381 -0.80274,0.26953 0.39844,3e-5 0.79688,0 1.19531,0 -0.20447,-0.15626 -0.32833,-0.25869 -0.39257,-0.26953 z"
           inkscape:connector-curvature="0" />
      </g>
    </g>
  </g>
</svg>

<?xml version="1.0" encoding="UTF-8" standalone="no"?>
<!-- Created with Inkscape (http://www.inkscape.org/) -->

<svg
   width="210mm"
   height="297mm"
   viewBox="0 0 210 297"
   version="1.1"
   id="svg5"
   inkscape:version="1.1 (c4e8f9e, 2021-05-24)"
   sodipodi:docname="diversification-badge.svg"
   xmlns:inkscape="http://www.inkscape.org/namespaces/inkscape"
   xmlns:sodipodi="http://sodipodi.sourceforge.net/DTD/sodipodi-0.dtd"
   xmlns="http://www.w3.org/2000/svg"
   xmlns:svg="http://www.w3.org/2000/svg">
  <sodipodi:namedview
     id="namedview7"
     pagecolor="#505050"
     bordercolor="#eeeeee"
     borderopacity="1"
     inkscape:pageshadow="0"
     inkscape:pageopacity="0"
     inkscape:pagecheckerboard="0"
     inkscape:document-units="mm"
     showgrid="false"
     inkscape:zoom="0.50670507"
     inkscape:cx="298.9905"
     inkscape:cy="359.1833"
     inkscape:window-width="1712"
     inkscape:window-height="1110"
     inkscape:window-x="510"
     inkscape:window-y="174"
     inkscape:window-maximized="0"
     inkscape:current-layer="layer1" />
  <defs
     id="defs2">
    <style
       type="text/css"
       id="style9">

    .fil0 {fill:black}

  </style>
  </defs>
  <g
     inkscape:label="Layer 1"
     inkscape:groupmode="layer"
     id="layer1">
    <g
       style="clip-rule:evenodd;fill-rule:evenodd;image-rendering:optimizeQuality;shape-rendering:geometricPrecision;text-rendering:geometricPrecision"
       id="g30"
       transform="matrix(0.26458333,0,0,0.26458333,-2.2986673,18.186033)">
      <g
         id="g15"
         style="fill:#d81b60;fill-opacity:1"
         transform="matrix(1.6022599,0,0,1.6022599,-270.25732,-187.67419)">
        <path
           id="path13"
           style="fill:#43a047;fill-opacity:1;stroke-width:1.60226"
           class="fil0"
           d="M 398.80859 17.251953 L 352.34375 73.330078 L 283.44727 34.876953 L 253.00391 108.58008 L 169.68555 90.955078 L 164.87891 164.66016 L 86.369141 174.27344 L 103.99414 251.18164 L 27.085938 288.0332 L 67.140625 350.52148 L 7.8574219 403.39648 L 68.744141 454.66797 L 27.085938 529.97461 L 95.982422 557.21289 L 79.958984 634.12109 L 158.4707 640.53125 L 169.68555 725.45117 L 240.18555 706.22266 L 272.23047 778.32422 L 341.12891 736.66602 L 398.80859 800.75586 L 446.87695 743.07617 L 514.17188 783.13281 L 546.2168 709.42773 L 629.53516 725.45117 L 634.3418 651.74609 L 712.85156 643.73633 L 693.625 565.22461 L 772.13672 529.97461 L 732.08008 467.48633 L 791.36328 414.61133 L 730.47656 361.73828 L 772.13672 288.0332 L 703.23828 260.79492 L 719.26172 182.28516 L 639.14844 175.875 L 629.53516 90.955078 L 557.43359 110.18359 L 525.38867 38.082031 L 458.09375 79.740234 L 398.80859 17.251953 z M 600.29688 237.19141 C 600.29687 237.19141 543.38675 559.67578 334.7207 559.67578 C 327.89163 559.67578 318.40818 557.20874 309.30273 553.98242 L 291.28125 597.61328 L 255.42773 585.09375 C 294.88385 487.02306 334.71952 369.98291 505.4375 332.04102 C 505.38162 332.04102 315.74185 332.06621 254.09961 507.50977 C 254.09961 507.50977 220.9043 474.31259 220.9043 436.37305 C 220.9043 398.43354 258.84319 317.81314 353.69141 298.84375 C 448.53959 279.87435 581.32743 275.13092 600.29688 237.19141 z M 240.18555 730.25781 L 222.56055 735.06445 L 200.12891 1101.9824 L 405.21875 925.73242 L 621.52344 1101.9824 L 579.86523 738.26953 L 546.2168 731.85938 L 514.17188 805.56445 L 446.87695 765.50781 L 398.80859 823.1875 L 341.12891 760.70117 L 272.23047 802.35938 L 240.18555 730.25781 z "
           transform="matrix(0.62411848,0,0,0.62411848,174.09485,74.232387)" />
      </g>
    </g>
  </g>
</svg>
